src/assets/icons/user.svg

<svg viewBox="0 0 20 20" xmlns="http://www.w3.org/2000/svg">
<path d="M13.7134 10.7093C14.6986 9.93843 15.4178 8.8813 15.7708 7.68501C16.1237 6.48872 16.093 5.21276 15.6829 4.03464C15.2727 2.85652 14.5036 1.83483 13.4823 1.11171C12.4611 0.388591 11.2387 0 9.9851 0C8.73148 0 7.50904 0.388591 6.48784 1.11171C5.46664 1.83483 4.69746 2.85652 4.28731 4.03464C3.87716 5.21276 3.84644 6.48872 4.19943 7.68501C4.55241 8.8813 5.27154 9.93843 6.25678 10.7093C4.56856 11.382 3.09553 12.4976 1.99473 13.9374C0.893922 15.3771 0.20661 17.0869 0.00606162 18.8846C-0.00845511 19.0159 0.00316392 19.1487 0.0402551 19.2754C0.0773462 19.4022 0.139183 19.5205 0.222235 19.6235C0.389967 19.8316 0.63393 19.9648 0.900456 19.994C1.16698 20.0231 1.43424 19.9458 1.64343 19.779C1.85263 19.6122 1.98662 19.3695 2.01594 19.1045C2.23661 17.1508 3.17331 15.3465 4.64708 14.0362C6.12086 12.7259 8.02838 12.0016 10.0052 12.0016C11.982 12.0016 13.8895 12.7259 15.3633 14.0362C16.8371 15.3465 17.7738 17.1508 17.9944 19.1045C18.0218 19.3501 18.1396 19.5769 18.3252 19.7411C18.5108 19.9054 18.751 19.9955 18.9994 19.994H19.1099C19.3734 19.9638 19.6141 19.8314 19.7798 19.6254C19.9454 19.4195 20.0225 19.1568 19.9943 18.8946C19.7928 17.0918 19.1018 15.3776 17.9953 13.9357C16.8888 12.4937 15.4087 11.3784 13.7134 10.7093ZM9.9851 9.99973C9.19006 9.99973 8.41289 9.76527 7.75184 9.326C7.0908 8.88672 6.57557 8.26237 6.27133 7.53189C5.96708 6.8014 5.88748 5.9976 6.04258 5.22212C6.19768 4.44665 6.58053 3.73433 7.1427 3.17524C7.70487 2.61615 8.42113 2.23541 9.20088 2.08115C9.98064 1.9269 10.7889 2.00607 11.5234 2.30865C12.2579 2.61122 12.8857 3.12362 13.3274 3.78103C13.7691 4.43845 14.0048 5.21137 14.0048 6.00204C14.0048 7.06229 13.5813 8.07912 12.8275 8.82883C12.0736 9.57855 11.0512 9.99973 9.9851 9.99973Z"/>
</svg>

<svg viewBox="0 0 20 20" xmlns="http://www.w3.org/2000/svg">
  <path d="M13.713 10.71a5.996 5.996 0 0 0 2.058-3.025 5.966 5.966 0 0 0-.088-3.65 6 6 0 0 0-2.2-2.923 6.052 6.052 0 0 0-6.995 0 6 6 0 0 0-2.2 2.923 5.965 5.965 0 0 0-.089 3.65 5.995 5.995 0 0 0 2.058 3.024 10.043 10.043 0 0 0-4.262 3.228 9.963 9.963 0 0 0-1.989 4.948 1 1 0 0 0 .216.738 1.012 1.012 0 0 0 1.794-.518 7.981 7.981 0 0 1 2.631-5.069 8.065 8.065 0 0 1 5.358-2.034c1.977 0 3.884.724 5.358 2.034a7.98 7.98 0 0 1 2.631 5.069 1.008 1.008 0 0 0 1.005.89h.11c.264-.031.505-.164.67-.37a.996.996 0 0 0 .215-.73 9.963 9.963 0 0 0-1.999-4.96 10.044 10.044 0 0 0-4.282-3.226zM9.985 10a4.036 4.036 0 0 1-2.233-.674 4.003 4.003 0 0 1-1.48-1.794 3.977 3.977 0 0 1 .87-4.357 4.04 4.04 0 0 1 4.38-.867 4.015 4.015 0 0 1 1.805 1.473 3.982 3.982 0 0 1-.5 5.048 4.031 4.031 0 0 1-2.842 1.17z"/>
</svg>
